X:71
T:Highland Wedding. JJo.071
B:J.Johnson Choice Collection Vol 8 1758
Z:vmp.Simon Wilson 2013 www.village-music-project.org.uk
Z:Dance added by John Chambers 2017
M:C|
L:1/4
%Q:1/1=80
K:G
|:\
Bgge | dBAG | "^tr"E>DEG | "^tr"E>DEG |\
Bgge | dBAG | "^tr"E>DEF | G2G,2 :|\
|:\
gege | dedB | gege | d2B2 |
geaf | gede | dBAG | A2DA |\
Bgge | dBAG | "^tr"E>DEG | "^tr"E>DEG |\
Bgge | dBAG | "^tr"F>DEF | G2G,2 :|
%%begintext align
%% First Cu. foot it and change Places.
%% the same back again Cross over two Cu.
%% lead to the top and cast off hands 6
%% round and Right and Left.
%%endtext
